flaticon/music/mic.svg

<svg xmlns="http://www.w3.org/2000/svg" width="32" height="32" viewBox="0 0 24 24">
    <path d="M7.882812 20.117188C7.808594 20.042969 7.707031 20 7.601562 20L6.800781 20C6.695312 20 6.59375 20.042969 6.515625 20.117188L6.117188 20.515625C6.042969 20.59375 6 20.695312 6 20.800781L6 21.601562C6 21.707031 6.042969 21.808594 6.117188 21.882812L6.515625 22.28125C6.59375 22.359375 6.695312 22.398438 6.800781 22.398438L7.601562 22.398438C7.707031 22.398438 7.808594 22.359375 7.882812 22.28125L8.28125 21.882812C8.359375 21.808594 8.398438 21.707031 8.398438 21.601562L8.398438 20.800781C8.398438 20.695312 8.359375 20.59375 8.28125 20.515625zM7.601562 21.433594L7.433594 21.601562 6.964844 21.601562 6.800781 21.433594 6.800781 20.964844 6.964844 20.800781 7.433594 20.800781 7.601562 20.964844zM11.082031 20.117188C11.007812 20.042969 10.90625 20 10.800781 20L10 20C9.894531 20 9.792969 20.042969 9.71875 20.117188L9.316406 20.515625C9.242188 20.59375 9.199219 20.695312 9.199219 20.800781L9.199219 21.601562C9.199219 21.707031 9.242188 21.808594 9.316406 21.882812L9.71875 22.28125C9.792969 22.359375 9.894531 22.398438 10 22.398438L10.800781 22.398438C10.90625 22.398438 11.007812 22.359375 11.082031 22.28125L11.484375 21.882812C11.558594 21.808594 11.601562 21.707031 11.601562 21.601562L11.601562 20.800781C11.601562 20.695312 11.558594 20.59375 11.484375 20.515625zM10.800781 21.433594L10.632812 21.601562 10.164062 21.601562 10 21.433594 10 20.964844 10.164062 20.800781 10.632812 20.800781 10.800781 20.964844zM7.882812 16.917969C7.808594 16.84375 7.707031 16.800781 7.601562 16.800781L6.800781 16.800781C6.695312 16.800781 6.59375 16.84375 6.515625 16.917969L6.117188 17.316406C6.042969 17.390625 6 17.492188 6 17.601562L6 18.398438C6 18.507812 6.042969 18.609375 6.117188 18.683594L6.515625 19.082031C6.59375 19.15625 6.695312 19.199219 6.800781 19.199219L7.601562 19.199219C7.707031 19.199219 7.808594 19.15625 7.882812 19.082031L8.28125 18.683594C8.359375 18.609375 8.398438 18.507812 8.398438 18.398438L8.398438 17.601562C8.398438 17.492188 8.359375 17.390625 8.28125 17.316406zM7.601562 18.234375L7.433594 18.398438 6.964844 18.398438 6.800781 18.234375 6.800781 17.765625 6.964844 17.601562 7.433594 17.601562 7.601562 17.765625zM11.082031 16.917969C11.007812 16.84375 10.90625 16.800781 10.800781 16.800781L10 16.800781C9.894531 16.800781 9.792969 16.84375 9.71875 16.917969L9.316406 17.316406C9.242188 17.390625 9.199219 17.492188 9.199219 17.601562L9.199219 18.398438C9.199219 18.507812 9.242188 18.609375 9.316406 18.683594L9.71875 19.082031C9.792969 19.15625 9.894531 19.199219 10 19.199219L10.800781 19.199219C10.90625 19.199219 11.007812 19.15625 11.082031 19.082031L11.484375 18.683594C11.558594 18.609375 11.601562 18.507812 11.601562 18.398438L11.601562 17.601562C11.601562 17.492188 11.558594 17.390625 11.484375 17.316406zM10.800781 18.234375L10.632812 18.398438 10.164062 18.398438 10 18.234375 10 17.765625 10.164062 17.601562 10.632812 17.601562 10.800781 17.765625zM17.484375 16.917969C17.40625 16.84375 17.304688 16.800781 17.199219 16.800781L13.199219 16.800781C13.09375 16.800781 12.992188 16.84375 12.917969 16.917969L12.515625 17.316406C12.441406 17.390625 12.398438 17.492188 12.398438 17.601562L12.398438 18.398438C12.398438 18.507812 12.441406 18.609375 12.515625 18.683594L12.917969 19.082031C12.992188 19.15625 13.09375 19.199219 13.199219 19.199219L17.199219 19.199219C17.304688 19.199219 17.40625 19.15625 17.484375 19.082031L17.882812 18.683594C17.957031 18.609375 18 18.507812 18 18.398438L18 17.601562C18 17.492188 17.957031 17.390625 17.882812 17.316406zM17.199219 18.234375L17.035156 18.398438 13.367188 18.398438 13.199219 18.234375 13.199219 17.765625 13.367188 17.601562 17.035156 17.601562 17.199219 17.765625zM14.28125 20.117188C14.207031 20.042969 14.105469 20 14 20L13.199219 20C13.09375 20 12.992188 20.042969 12.917969 20.117188L12.515625 20.515625C12.441406 20.59375 12.398438 20.695312 12.398438 20.800781L12.398438 21.601562C12.398438 21.707031 12.441406 21.808594 12.515625 21.882812L12.917969 22.28125C12.992188 22.359375 13.09375 22.398438 13.199219 22.398438L14 22.398438C14.105469 22.398438 14.207031 22.359375 14.28125 22.28125L14.683594 21.882812C14.757812 21.808594 14.800781 21.707031 14.800781 21.601562L14.800781 20.800781C14.800781 20.695312 14.757812 20.59375 14.683594 20.515625zM14 21.433594L13.835938 21.601562 13.367188 21.601562 13.199219 21.433594 13.199219 20.964844 13.367188 20.800781 13.835938 20.800781 14 20.964844zM17.484375 20.117188C17.40625 20.042969 17.304688 20 17.199219 20L16.398438 20C16.292969 20 16.191406 20.042969 16.117188 20.117188L15.71875 20.515625C15.640625 20.59375 15.601562 20.695312 15.601562 20.800781L15.601562 21.601562C15.601562 21.707031 15.640625 21.808594 15.71875 21.882812L16.117188 22.28125C16.191406 22.359375 16.292969 22.398438 16.398438 22.398438L17.199219 22.398438C17.304688 22.398438 17.40625 22.359375 17.484375 22.28125L17.882812 21.882812C17.957031 21.808594 18 21.707031 18 21.601562L18 20.800781C18 20.695312 17.957031 20.59375 17.882812 20.515625zM17.199219 21.433594L17.035156 21.601562 16.566406 21.601562 16.398438 21.433594 16.398438 20.964844 16.566406 20.800781 17.035156 20.800781 17.199219 20.964844zM7.199219 12.800781L8.398438 12.800781C8.621094 12.800781 8.800781 12.621094 8.800781 12.398438L8.800781 9.199219C8.800781 8.980469 8.621094 8.800781 8.398438 8.800781L7.199219 8.800781C6.980469 8.800781 6.800781 8.980469 6.800781 9.199219L6.800781 12.398438C6.800781 12.621094 6.980469 12.800781 7.199219 12.800781zM7.601562 9.601562L8 9.601562 8 12 7.601562 12zM9.601562 9.601562L10.398438 9.601562 10.398438 12.398438C10.398438 12.621094 10.578125 12.800781 10.800781 12.800781 11.019531 12.800781 11.199219 12.621094 11.199219 12.398438L11.199219 9.199219C11.199219 8.980469 11.019531 8.800781 10.800781 8.800781L9.601562 8.800781C9.378906 8.800781 9.199219 8.980469 9.199219 9.199219 9.199219 9.421875 9.378906 9.601562 9.601562 9.601562zM13.199219 12.800781L14.398438 12.800781C14.621094 12.800781 14.800781 12.621094 14.800781 12.398438L14.800781 9.199219C14.800781 8.980469 14.621094 8.800781 14.398438 8.800781L13.199219 8.800781C12.980469 8.800781 12.800781 8.980469 12.800781 9.199219L12.800781 12.398438C12.800781 12.621094 12.980469 12.800781 13.199219 12.800781zM13.601562 9.601562L14 9.601562 14 12 13.601562 12zM15.601562 12C15.378906 12 15.199219 12.179688 15.199219 12.398438 15.199219 12.621094 15.378906 12.800781 15.601562 12.800781L16.800781 12.800781C17.019531 12.800781 17.199219 12.621094 17.199219 12.398438L17.199219 10.800781C17.199219 10.578125 17.019531 10.398438 16.800781 10.398438L16 10.398438 16 9.601562 16.800781 9.601562C17.019531 9.601562 17.199219 9.421875 17.199219 9.199219 17.199219 8.980469 17.019531 8.800781 16.800781 8.800781L15.601562 8.800781C15.378906 8.800781 15.199219 8.980469 15.199219 9.199219L15.199219 10.800781C15.199219 11.019531 15.378906 11.199219 15.601562 11.199219L16.398438 11.199219 16.398438 12zM12.398438 10C12.398438 10.222656 12.222656 10.398438 12 10.398438 11.777344 10.398438 11.601562 10.222656 11.601562 10 11.601562 9.777344 11.777344 9.601562 12 9.601562 12.222656 9.601562 12.398438 9.777344 12.398438 10zM12.398438 11.601562C12.398438 11.820312 12.222656 12 12 12 11.777344 12 11.601562 11.820312 11.601562 11.601562 11.601562 11.378906 11.777344 11.199219 12 11.199219 12.222656 11.199219 12.398438 11.378906 12.398438 11.601562zM12.398438 11.601562"/>
    <path d="M 18 7.601562 L 6 7.601562 C 5.777344 7.601562 5.601562 7.777344 5.601562 8 L 5.601562 15.199219 C 5.601562 15.421875 5.777344 15.601562 6 15.601562 L 18 15.601562 C 18.222656 15.601562 18.398438 15.421875 18.398438 15.199219 L 18.398438 8 C 18.398438 7.777344 18.222656 7.601562 18 7.601562 Z M 17.601562 14.800781 L 6.398438 14.800781 L 6.398438 8.398438 L 17.601562 8.398438 Z M 17.601562 14.800781"/>
    <path d="M 20.683594 4.214844 L 18.984375 2.515625 C 18.910156 2.441406 18.808594 2.398438 18.703125 2.398438 C 18.597656 2.398438 18.496094 2.441406 18.421875 2.515625 L 16.996094 3.941406 C 16.808594 3.753906 16.613281 3.554688 16.398438 3.339844 L 16.398438 2 C 16.398438 1.898438 16.359375 1.800781 16.292969 1.726562 L 14.785156 0.125 C 14.632812 -0.0351562 14.378906 -0.0429688 14.21875 0.109375 C 14.058594 0.261719 14.050781 0.511719 14.203125 0.675781 L 15.601562 2.160156 L 15.601562 3.601562 C 15.601562 5.082031 13.585938 6.398438 12 6.398438 C 10.414062 6.398438 8.398438 5.082031 8.398438 3.601562 L 8.398438 2.164062 L 9.882812 0.683594 C 10.039062 0.527344 10.039062 0.273438 9.882812 0.117188 C 9.726562 -0.0390625 9.472656 -0.0390625 9.316406 0.117188 L 7.71875 1.71875 C 7.640625 1.792969 7.601562 1.894531 7.601562 2 L 7.601562 3.433594 L 7.046875 3.984375 L 5.578125 2.515625 C 5.429688 2.367188 5.164062 2.367188 5.015625 2.515625 L 3.316406 4.214844 C 3.242188 4.289062 3.199219 4.390625 3.199219 4.496094 C 3.199219 4.601562 3.242188 4.707031 3.316406 4.78125 L 4.785156 6.25 L 4.515625 6.515625 C 4.441406 6.59375 4.398438 6.695312 4.398438 6.800781 L 4.398438 22.476562 C 4.398438 23.316406 5.082031 24 5.921875 24 L 18.078125 24 C 18.917969 24 19.601562 23.316406 19.601562 22.476562 L 19.601562 6.800781 C 19.601562 6.699219 19.5625 6.601562 19.492188 6.527344 C 19.398438 6.425781 19.3125 6.335938 19.222656 6.238281 L 20.683594 4.78125 C 20.839844 4.625 20.839844 4.371094 20.683594 4.214844 Z M 4.164062 4.496094 L 5.296875 3.367188 L 6.484375 4.550781 L 5.351562 5.683594 Z M 18.800781 22.476562 C 18.800781 22.875 18.476562 23.199219 18.078125 23.199219 L 5.921875 23.199219 C 5.523438 23.199219 5.199219 22.875 5.199219 22.476562 L 5.199219 6.964844 L 5.632812 6.53125 L 7.332031 4.835938 L 7.738281 4.425781 C 8.277344 6.019531 10.292969 7.199219 12 7.199219 C 13.734375 7.199219 15.78125 5.984375 16.285156 4.355469 C 16.433594 4.507812 16.574219 4.648438 16.710938 4.789062 C 16.714844 4.789062 16.714844 4.789062 16.714844 4.789062 C 17.359375 5.4375 17.84375 5.9375 18.375 6.503906 C 18.511719 6.648438 18.652344 6.796875 18.800781 6.957031 Z M 18.675781 5.65625 C 18.601562 5.578125 18.53125 5.503906 18.460938 5.429688 C 18.441406 5.410156 18.421875 5.390625 18.40625 5.371094 C 18.328125 5.292969 18.253906 5.214844 18.175781 5.136719 C 18.152344 5.113281 18.128906 5.085938 18.105469 5.0625 C 18.027344 4.980469 17.949219 4.902344 17.867188 4.820312 C 17.855469 4.808594 17.839844 4.792969 17.828125 4.777344 C 17.742188 4.691406 17.652344 4.597656 17.5625 4.507812 L 18.703125 3.367188 L 19.835938 4.496094 Z M 18.675781 5.65625"/>
    <path d="M8 13.601562L7.601562 13.601562C7.378906 13.601562 7.199219 13.777344 7.199219 14 7.199219 14.222656 7.378906 14.398438 7.601562 14.398438L8 14.398438C8.222656 14.398438 8.398438 14.222656 8.398438 14 8.398438 13.777344 8.222656 13.601562 8 13.601562zM9.601562 14.398438L10 14.398438C10.222656 14.398438 10.398438 14.222656 10.398438 14 10.398438 13.777344 10.222656 13.601562 10 13.601562L9.601562 13.601562C9.378906 13.601562 9.199219 13.777344 9.199219 14 9.199219 14.222656 9.378906 14.398438 9.601562 14.398438zM11.601562 14.398438L12 14.398438C12.222656 14.398438 12.398438 14.222656 12.398438 14 12.398438 13.777344 12.222656 13.601562 12 13.601562L11.601562 13.601562C11.378906 13.601562 11.199219 13.777344 11.199219 14 11.199219 14.222656 11.378906 14.398438 11.601562 14.398438zM14 13.601562L13.601562 13.601562C13.378906 13.601562 13.199219 13.777344 13.199219 14 13.199219 14.222656 13.378906 14.398438 13.601562 14.398438L14 14.398438C14.222656 14.398438 14.398438 14.222656 14.398438 14 14.398438 13.777344 14.222656 13.601562 14 13.601562zM15.601562 14.398438L16 14.398438C16.222656 14.398438 16.398438 14.222656 16.398438 14 16.398438 13.777344 16.222656 13.601562 16 13.601562L15.601562 13.601562C15.378906 13.601562 15.199219 13.777344 15.199219 14 15.199219 14.222656 15.378906 14.398438 15.601562 14.398438zM15.601562 14.398438"/>
</svg>

<svg xmlns="http://www.w3.org/2000/svg" width="32" height="32" viewBox="0 0 24 24">
    <path d="M7.883 20.117A.4.4 0 0 0 7.602 20H6.8a.416.416 0 0 0-.285.117l-.399.399A.416.416 0 0 0 6 20.8v.8a.4.4 0 0 0 .117.282l.399.398c.078.078.18.117.285.117h.8c.106 0 .208-.039.282-.117l.398-.398a.384.384 0 0 0 .117-.281V20.8a.399.399 0 0 0-.117-.285zm-.281 1.317l-.168.168h-.47l-.163-.168v-.47l.164-.163h.469l.168.164zm0 0M11.082 20.117a.4.4 0 0 0-.281-.117H10a.4.4 0 0 0-.281.117l-.403.399a.416.416 0 0 0-.117.285v.8a.4.4 0 0 0 .117.282l.403.398a.384.384 0 0 0 .281.117h.8c.106 0 .208-.039.282-.117l.402-.398a.4.4 0 0 0 .118-.281V20.8a.416.416 0 0 0-.118-.285zm-.281 1.317l-.168.168h-.469L10 21.434v-.47l.164-.163h.469l.168.164zm0 0M7.883 16.918a.4.4 0 0 0-.281-.117H6.8a.416.416 0 0 0-.285.117l-.399.398a.402.402 0 0 0-.117.286v.796c0 .11.043.211.117.286l.399.398c.078.074.18.117.285.117h.8a.4.4 0 0 0 .282-.117l.398-.398a.386.386 0 0 0 .117-.286v-.796c0-.11-.039-.211-.117-.286zm-.281 1.316l-.168.164h-.47l-.163-.164v-.468l.164-.164h.469l.168.164zm0 0M11.082 16.918a.4.4 0 0 0-.281-.117H10a.4.4 0 0 0-.281.117l-.403.398a.402.402 0 0 0-.117.286v.796c0 .11.043.211.117.286l.403.398a.4.4 0 0 0 .281.117h.8a.4.4 0 0 0 .282-.117l.402-.398a.402.402 0 0 0 .118-.286v-.796c0-.11-.043-.211-.118-.286zm-.281 1.316l-.168.164h-.469L10 18.234v-.468l.164-.164h.469l.168.164zm0 0M17.484 16.918a.416.416 0 0 0-.285-.117h-4a.4.4 0 0 0-.281.117l-.402.398a.402.402 0 0 0-.118.286v.796c0 .11.043.211.118.286l.402.398a.4.4 0 0 0 .281.117h4a.416.416 0 0 0 .285-.117l.399-.398a.402.402 0 0 0 .117-.286v-.796c0-.11-.043-.211-.117-.286zm-.285 1.316l-.164.164h-3.668l-.168-.164v-.468l.168-.164h3.668l.164.164zm0 0M14.281 20.117A.4.4 0 0 0 14 20h-.8a.4.4 0 0 0-.282.117l-.402.399a.416.416 0 0 0-.118.285v.8a.4.4 0 0 0 .118.282l.402.398a.384.384 0 0 0 .281.117H14c.105 0 .207-.039.281-.117l.403-.398a.4.4 0 0 0 .117-.281V20.8a.416.416 0 0 0-.117-.285zM14 21.434l-.164.168h-.469l-.168-.168v-.47l.168-.163h.469l.164.164zm0 0M17.484 20.117A.416.416 0 0 0 17.2 20h-.8a.4.4 0 0 0-.282.117l-.398.399a.399.399 0 0 0-.117.285v.8c0 .106.039.208.117.282l.398.398a.384.384 0 0 0 .281.117h.801c.106 0 .207-.039.285-.117l.399-.398a.4.4 0 0 0 .117-.281V20.8a.416.416 0 0 0-.117-.285zm-.285 1.317l-.164.168h-.469l-.168-.168v-.47l.168-.163h.47l.163.164zm0 0M7.2 12.8h1.198c.223 0 .403-.179.403-.402V9.2a.401.401 0 0 0-.403-.398H7.2a.4.4 0 0 0-.398.398v3.2c0 .222.18.402.398.402zm.402-3.198H8V12h-.398zm0 0M9.602 9.602h.796v2.796a.401.401 0 0 0 .8 0L11.2 9.2a.4.4 0 0 0-.398-.398H9.6a.401.401 0 1 0 0 .8zm0 0M13.2 12.8h1.198c.223 0 .403-.179.403-.402V9.2a.401.401 0 0 0-.403-.398H13.2a.4.4 0 0 0-.398.398v3.2c0 .222.18.402.398.402zm.402-3.198H14V12h-.398zm0 0M15.602 12a.401.401 0 1 0 0 .8H16.8c.219 0 .398-.179.398-.402v-1.597a.401.401 0 0 0-.398-.403H16v-.796h.8a.401.401 0 0 0 0-.801h-1.198a.401.401 0 0 0-.403.398v1.602c0 .219.18.398.403.398h.796V12zm0 0M12.398 10a.395.395 0 0 1-.398.398.395.395 0 0 1-.398-.398c0-.223.175-.398.398-.398.223 0 .398.175.398.398zm0 0M12.398 11.602a.398.398 0 1 1-.796 0 .398.398 0 1 1 .796 0zm0 0"/>
    <path d="M18 7.602H6A.395.395 0 0 0 5.602 8v7.2c0 .222.175.402.398.402h12c.223 0 .398-.18.398-.403V8A.395.395 0 0 0 18 7.602zm-.398 7.199H6.398V8.398h11.204zm0 0"/>
    <path d="M20.684 4.215l-1.7-1.7a.4.4 0 0 0-.562 0l-1.426 1.426-.598-.601V2c0-.102-.039-.2-.105-.273L14.785.125a.401.401 0 0 0-.582.55l1.399 1.485v1.442c0 1.48-2.016 2.796-3.602 2.796-1.586 0-3.602-1.316-3.602-2.796V2.164L9.883.684a.4.4 0 0 0-.567-.567L7.72 1.72A.384.384 0 0 0 7.602 2v1.434l-.555.55-1.469-1.468a.41.41 0 0 0-.562 0l-1.7 1.699a.4.4 0 0 0 0 .566l1.47 1.469-.27.266a.416.416 0 0 0-.118.285v15.676c0 .84.684 1.523 1.524 1.523h12.156c.84 0 1.524-.684 1.524-1.523V6.8c0-.102-.04-.2-.11-.274-.094-.101-.18-.191-.27-.289l1.462-1.457a.4.4 0 0 0 0-.566zm-16.52.281l1.133-1.129 1.187 1.184-1.132 1.133zm14.637 17.98a.724.724 0 0 1-.723.723H5.922a.724.724 0 0 1-.723-.722V6.965l.434-.434 1.699-1.695.406-.41C8.278 6.02 10.293 7.199 12 7.199c1.734 0 3.781-1.215 4.285-2.844.149.153.29.293.426.434h.004a77.904 77.904 0 0 1 1.66 1.715c.137.144.277.293.426.453zm-.125-16.82l-.215-.226c-.02-.02-.04-.04-.055-.059l-.23-.234-.07-.074c-.079-.083-.157-.16-.239-.243a.428.428 0 0 1-.039-.043c-.086-.086-.176-.18-.265-.27l1.14-1.14 1.133 1.13zm0 0"/>
    <path d="M8 13.602h-.398a.398.398 0 1 0 0 .796H8A.395.395 0 0 0 8.398 14 .395.395 0 0 0 8 13.602zm0 0M9.602 14.398H10a.395.395 0 0 0 .398-.398.395.395 0 0 0-.398-.398h-.398a.398.398 0 1 0 0 .796zm0 0M11.602 14.398H12a.395.395 0 0 0 .398-.398.395.395 0 0 0-.398-.398h-.398a.398.398 0 1 0 0 .796zm0 0M14 13.602h-.398a.398.398 0 1 0 0 .796H14a.395.395 0 0 0 .398-.398.395.395 0 0 0-.398-.398zm0 0M15.602 14.398H16a.395.395 0 0 0 .398-.398.395.395 0 0 0-.398-.398h-.398a.398.398 0 1 0 0 .796zm0 0"/>
</svg>
